public/icons/50d.svg

<svg width="240" height="240" viewBox="0 0 240 240" fill="none" xmlns="http://www.w3.org/2000/svg">
<path d="M194.969 97.5987C194.99 96.9731 195 96.3449 195 95.7143C195 64.9441 170.152 40 139.5 40C115.185 40 94.5218 55.6968 87.0176 77.5468C81.6283 74.7236 75.4999 73.1274 69 73.1274C47.4609 73.1274 30 90.6557 30 112.278C30 133.9 47.4609 151.429 69 151.429L139.5 151.429C139.525 151.429 139.55 151.429 139.575 151.429H181.5C197.24 151.429 210 138.619 210 122.818C210 111.908 203.917 102.424 194.969 97.5987Z" fill="white"/>
<path fill-rule="evenodd" clip-rule="evenodd" d="M57 165C57 162.239 59.2386 160 62 160H177C179.761 160 182 162.239 182 165C182 167.761 179.761 170 177 170H62C59.2386 170 57 167.761 57 165ZM57 185C57 182.239 59.2386 180 62 180H177C179.761 180 182 182.239 182 185C182 187.761 179.761 190 177 190H62C59.2386 190 57 187.761 57 185ZM62 200C59.2386 200 57 202.239 57 205C57 207.761 59.2386 210 62 210H177C179.761 210 182 207.761 182 205C182 202.239 179.761 200 177 200H62Z" fill="black" fill-opacity="0.4"/>
</svg>

<svg xmlns="http://www.w3.org/2000/svg" width="240" height="240" fill="none" xmlns:v="https://vecta.io/nano"><path d="M194.969 97.599l.031-1.884C195 64.944 170.152 40 139.5 40c-24.315 0-44.978 15.697-52.482 37.547A38.71 38.71 0 0 0 69 73.127c-21.539 0-39 17.528-39 39.151s17.461 39.151 39 39.151h70.5.075H181.5c15.74 0 28.5-12.81 28.5-28.611 0-10.91-6.083-20.394-15.031-25.219z" fill="#fff"/><path fill-rule="evenodd" d="M57 165a5 5 0 0 1 5-5h115a5 5 0 1 1 0 10H62a5 5 0 0 1-5-5zm0 20a5 5 0 0 1 5-5h115a5 5 0 1 1 0 10H62a5 5 0 0 1-5-5zm5 15a5 5 0 1 0 0 10h115a5 5 0 1 0 0-10H62z" fill="#000" fill-opacity=".4"/></svg>
